X: 11072
T: PHILIP'S REEL
C: Bob McQuillen 24 May'01
B: Bob's Note Book 11 #72
R: reel
Z: 2020 John Chambers <jc:trillian.mit.edu>
M: C
L: 1/8
K: G
DE \
| G2DG BGBd | egdB G2Bd | edBd gfed | cBAG FDEF |
| G2DG BGBd | egdB GBdB | cdef gdec | BGAF G2  :|
|: GA \
| B2GE DEGA | BdBG EDGA | B2dB AGBd | gedB A2dc |
| Bded BdBG | FGAc BGBd | gfed cBAG | FGAB G2  :|
%%begintext align
%% Philip McBride is
%% a real nice boy and he's George and Lee's oldest child.
%% He's also full of music, just like his sisters, and
%% guess what? He's a guitar player! And I bet you
%% dollars to donuts he can back up this tune on his
%% guitar if he can only get _somebody_ to play it for him!
%% Good luck, Phil!
%%endtext

%%sep 1 1 500

%%sep 1 1 500

